assets/01_base/Base_61.svg

<svg width="500" height="500" viewBox="0 0 500 500" fill="none" xmlns="http://www.w3.org/2000/svg">
<g clip-path="url(#clip0_70_775)">
<path d="M250.51 406.425C150.791 406.425 68.7534 330.715 58.6239 233.593C57.9189 240.26 57.5664 247.038 57.5664 253.89C57.5664 360.557 143.946 447.019 250.51 447.019C357.074 447.019 443.453 360.557 443.453 253.89C443.453 247.038 443.082 240.26 442.396 233.593C432.266 330.715 350.228 406.425 250.51 406.425Z" fill="#F89C1C"/>
<path d="M473.118 233.668L250.509 53L27.9008 233.668C10.7028 246.481 1 260.966 1 276.323C1 328.43 112.703 370.677 250.509 370.677C388.315 370.677 500.019 328.43 500.019 276.323C500.019 260.966 490.316 246.481 473.118 233.668Z" fill="#F4A6C8"/>
</g>
<defs>
<clipPath id="clip0_70_775">
<rect width="499" height="394" fill="white" transform="translate(1 53)"/>
</clipPath>
</defs>
</svg>

<svg xmlns="http://www.w3.org/2000/svg" width="500" height="500" fill="none" viewBox="0 0 500 500"><g clip-path="url(#Base_61_svg_clip0_70_775)"><path fill="#f89c1c" d="M250.51 406.425c-99.719 0-181.757-75.71-191.886-172.832a193 193 0 0 0-1.058 20.297c0 106.667 86.38 193.129 192.944 193.129s192.943-86.462 192.943-193.129c0-6.852-.371-13.63-1.057-20.297-10.13 97.122-92.168 172.832-191.886 172.832"/><path fill="#f4a6c8" d="M473.118 233.668 250.509 53 27.901 233.668C10.703 246.481 1 260.966 1 276.323c0 52.107 111.703 94.354 249.509 94.354s249.51-42.247 249.51-94.354c0-15.357-9.703-29.842-26.901-42.655"/></g><defs><clipPath id="Base_61_svg_clip0_70_775"><rect width="499" height="394" fill="#fff" transform="translate(1 53)"/></clipPath></defs></svg>
